packages/core/src/svgs/tokens/branded/BZR.svg

<svg width="24" height="24" viewBox="0 0 24 24" fill="none" xmlns="http://www.w3.org/2000/svg">
<path d="M9.22256 8.27794C8.85035 8.08349 7.30037 7.71683 6.56704 7.55571C6.56704 7.77793 6.54482 8.27237 6.44482 8.51681C7.32815 8.6557 8.56702 9.04458 9.07813 9.22237C9.12813 9.02236 9.22256 8.5557 9.22256 8.27794ZM9.22256 15.7222C8.85035 15.9167 7.30037 16.2834 6.56704 16.4445C6.56704 16.2222 6.54482 15.7278 6.44482 15.4833C7.32815 15.3445 8.56702 14.9556 9.07813 14.7779C9.12813 14.9778 9.22256 15.4444 9.22256 15.7222ZM18.1114 6.07795L14.1947 3.66687C14.1098 4.0022 13.926 4.3042 13.667 4.53352C14.8837 5.28907 17.3835 6.8335 17.6336 7.00016C17.6892 6.63906 17.978 6.23351 18.1114 6.07795ZM18.1114 17.9223L14.1947 20.3334C14.1098 19.998 13.926 19.696 13.667 19.4667C14.8837 18.7111 17.3835 17.1667 17.6336 17C17.6892 17.3611 17.978 17.7667 18.1114 17.9223ZM11.4447 10.3168C11.4447 10.0946 11.5281 9.49452 11.5726 9.22237C15.7003 11.3779 18.0225 13.8167 18.6668 14.7668C18.4614 14.8222 18.0003 15.0167 17.8003 15.3334C15.4002 12.3557 12.0225 10.6001 11.4447 10.3168Z" fill="black"/>
<path d="M11.4453 14.2389C11.4453 14.4611 11.5287 15.0612 11.5731 15.3334C15.7007 13.1778 18.023 10.739 18.6674 9.78892C18.4618 9.73344 18.0007 9.539 17.8007 9.22229C15.4008 12.2 12.0231 13.9556 11.4453 14.2389Z" fill="black"/>
<path d="M12.2775 4.77775C13.0445 4.77775 13.6663 4.15594 13.6663 3.38887C13.6663 2.62183 13.0445 2 12.2775 2C11.5105 2 10.8887 2.62183 10.8887 3.38887C10.8887 4.15594 11.5105 4.77775 12.2775 4.77775Z" fill="#3AB16D"/>
<path d="M12.2775 22C13.0445 22 13.6663 21.3782 13.6663 20.6112C13.6663 19.8441 13.0445 19.2222 12.2775 19.2222C11.5105 19.2222 10.8887 19.8441 10.8887 20.6112C10.8887 21.3782 11.5105 22 12.2775 22Z" fill="#3AB16D"/>
<path d="M4.5002 17.5554C5.26725 17.5554 5.88908 16.9336 5.88908 16.1666C5.88908 15.3995 5.26725 14.7776 4.5002 14.7776C3.73314 14.7776 3.11133 15.3995 3.11133 16.1666C3.11133 16.9336 3.73314 17.5554 4.5002 17.5554Z" fill="#3AB16D"/>
<path d="M4.5002 9.22225C5.26725 9.22225 5.88908 8.60044 5.88908 7.83338C5.88908 7.06633 5.26725 6.44452 4.5002 6.44452C3.73314 6.44452 3.11133 7.06633 3.11133 7.83338C3.11133 8.60044 3.73314 9.22225 4.5002 9.22225Z" fill="#3AB16D"/>
<path d="M19.5002 9.22225C20.2672 9.22225 20.889 8.60044 20.889 7.83338C20.889 7.06633 20.2672 6.44452 19.5002 6.44452C18.7332 6.44452 18.1113 7.06633 18.1113 7.83338C18.1113 8.60044 18.7332 9.22225 19.5002 9.22225Z" fill="#3AB16D"/>
<path d="M19.5002 17.5554C20.2672 17.5554 20.889 16.9336 20.889 16.1666C20.889 15.3995 20.2672 14.7776 19.5002 14.7776C18.7332 14.7776 18.1113 15.3995 18.1113 16.1666C18.1113 16.9336 18.7332 17.5554 19.5002 17.5554Z" fill="#3AB16D"/>
<path d="M9.22363 11.9886C9.22363 15.4052 10.0458 18.2387 10.4514 19.2219C10.6736 19.0775 11.1903 18.7885 11.4458 18.7885C10.5292 16.3497 10.3348 13.2554 10.3348 11.9998C10.3348 10.7442 10.5292 7.64983 11.4458 5.21097C11.1903 5.21097 10.6792 4.92209 10.4514 4.77765C10.0458 5.76097 9.22919 8.5776 9.22363 11.9886Z" fill="black"/>
</svg>

<svg xmlns="http://www.w3.org/2000/svg" width="24" height="24" fill="none" viewBox="0 0 24 24">
    <path fill="#000" d="M9.223 8.278c-.373-.195-1.923-.561-2.656-.722 0 .222-.022.716-.122.96.883.14 2.122.529 2.633.706.05-.2.145-.666.145-.944m0 7.444c-.373.195-1.923.561-2.656.723 0-.223-.022-.717-.122-.962.883-.139 2.122-.527 2.633-.705.05.2.145.666.145.944m8.888-9.644-3.916-2.411a1.7 1.7 0 0 1-.528.867c1.217.755 3.717 2.3 3.967 2.466.055-.36.344-.766.477-.922m0 11.844-3.916 2.411a1.7 1.7 0 0 0-.528-.866c1.217-.756 3.717-2.3 3.967-2.467.055.361.344.767.477.922m-6.666-7.605c0-.222.083-.822.128-1.095 4.127 2.156 6.45 4.595 7.094 5.545-.206.055-.667.25-.867.566-2.4-2.977-5.777-4.733-6.355-5.016"/>
    <path fill="#000" d="M11.445 14.239c0 .222.084.822.128 1.094 4.128-2.155 6.45-4.594 7.094-5.544-.205-.056-.666-.25-.866-.567-2.4 2.978-5.778 4.734-6.356 5.017"/>
    <path fill="#3AB16D" d="M12.278 4.778a1.389 1.389 0 1 0 0-2.778 1.389 1.389 0 0 0 0 2.778m0 17.222a1.389 1.389 0 1 0 0-2.778 1.389 1.389 0 0 0 0 2.778M4.5 17.555a1.389 1.389 0 1 0 0-2.777 1.389 1.389 0 0 0 0 2.777m0-8.333a1.389 1.389 0 1 0 0-2.777 1.389 1.389 0 0 0 0 2.777m15 0a1.389 1.389 0 1 0 0-2.777 1.389 1.389 0 0 0 0 2.777m0 8.333a1.389 1.389 0 1 0 0-2.777 1.389 1.389 0 0 0 0 2.777"/>
    <path fill="#000" d="M9.224 11.989c0 3.416.822 6.25 1.227 7.233.223-.145.74-.434.995-.434-.917-2.438-1.111-5.533-1.111-6.788 0-1.256.194-4.35 1.11-6.789-.255 0-.766-.289-.994-.433-.405.983-1.222 3.8-1.227 7.21"/>
</svg>
